fs/note_add_48_regular.svg

<svg viewBox="0 0 48 48" fill="none" xmlns="http://www.w3.org/2000/svg" height="1em" width="1em">
  <path d="M24 13C24 19.0751 19.0751 24 13 24C6.92487 24 2 19.0751 2 13C2 6.92487 6.92487 2 13 2C19.0751 2 24 6.92487 24 13ZM14 6C14 5.44772 13.5523 5 13 5C12.4477 5 12 5.44772 12 6V12H6C5.44771 12 5 12.4477 5 13C5 13.5523 5.44771 14 6 14H12V20C12 20.5523 12.4477 21 13 21C13.5523 21 14 20.5523 14 20V14H20C20.5523 14 21 13.5523 21 13C21 12.4477 20.5523 12 20 12H14V6ZM35.75 8.5H25.2001C24.8745 7.61768 24.456 6.78039 23.9564 6H35.75C39.2018 6 42 8.79822 42 12.25V25.9289C42 27.5865 41.3415 29.1762 40.1694 30.3484L30.3483 40.1694C29.1762 41.3415 27.5865 42 25.9289 42H12.25C8.79822 42 6 39.2018 6 35.75V23.9564C6.78039 24.456 7.61768 24.8745 8.5 25.2001V35.75C8.5 37.8211 10.1789 39.5 12.25 39.5H25.9289C25.9526 39.5 25.9763 39.4998 26 39.4993V32.25C26 28.7982 28.7982 26 32.25 26H39.4993C39.4998 25.9763 39.5 25.9526 39.5 25.9289V12.25C39.5 10.1789 37.8211 8.5 35.75 8.5ZM28.5 38.4799C28.5272 38.4542 28.5541 38.4282 28.5806 38.4016L38.4016 28.5806C38.4282 28.5541 38.4542 28.5272 38.4799 28.5H32.25C30.1789 28.5 28.5 30.1789 28.5 32.25V38.4799Z" fill="#212121"/>
</svg>

<svg viewBox="0 0 48 48" fill="none" xmlns="http://www.w3.org/2000/svg" height="1em" width="1em">
  <path d="M24 13c0 6.075-4.925 11-11 11S2 19.075 2 13 6.925 2 13 2s11 4.925 11 11ZM14 6a1 1 0 1 0-2 0v6H6a1 1 0 1 0 0 2h6v6a1 1 0 1 0 2 0v-6h6a1 1 0 1 0 0-2h-6V6Zm21.75 2.5H25.2A12.955 12.955 0 0 0 23.956 6H35.75A6.25 6.25 0 0 1 42 12.25v13.679a6.25 6.25 0 0 1-1.83 4.42l-9.822 9.82A6.25 6.25 0 0 1 25.928 42H12.25A6.25 6.25 0 0 1 6 35.75V23.956c.78.5 1.618.919 2.5 1.244v10.55a3.75 3.75 0 0 0 3.75 3.75H26v-7.25A6.25 6.25 0 0 1 32.25 26h7.25V12.25a3.75 3.75 0 0 0-3.75-3.75ZM28.5 38.48l.08-.078 9.822-9.821.078-.081h-6.23a3.75 3.75 0 0 0-3.75 3.75v6.23Z" fill="#212121"/>
</svg>
